src/assets/outline/Building3.svg

<svg width="24" height="24" viewBox="0 0 24 24"  xmlns="http://www.w3.org/2000/svg">
<path d="M22 22.75H2C1.59 22.75 1.25 22.41 1.25 22C1.25 21.59 1.59 21.25 2 21.25H22C22.41 21.25 22.75 21.59 22.75 22C22.75 22.41 22.41 22.75 22 22.75Z" />
<path d="M3.01001 22.7603C2.81001 22.7603 2.61998 22.6803 2.47998 22.5403C2.33998 22.4003 2.26001 22.2103 2.26001 22.0103L2.25 7.07029C2.25 6.16029 2.70997 5.30026 3.46997 4.79026L7.46997 2.12027C8.39997 1.50027 9.60002 1.50027 10.52 2.12027L14.52 4.79026C15.29 5.30026 15.74 6.15029 15.74 7.07029L15.75 21.9903C15.75 22.4003 15.42 22.7403 15 22.7403L3.01001 22.7603ZM9 3.1503C8.76 3.1503 8.52 3.22026 8.31 3.36026L4.31 6.03031C3.96 6.26031 3.75 6.65029 3.75 7.07029L3.76001 21.2603L14.26 21.2403L14.25 7.07029C14.25 6.65029 14.04 6.26026 13.7 6.04026L9.70001 3.37027C9.49001 3.22027 9.24 3.1503 9 3.1503Z" />
<path d="M19.98 22.76C19.57 22.76 19.23 22.42 19.23 22.01V18C19.23 17.59 19.57 17.25 19.98 17.25C20.39 17.25 20.73 17.59 20.73 18V22.01C20.73 22.42 20.4 22.76 19.98 22.76Z" />
<path d="M20 18.75C18.48 18.75 17.25 17.52 17.25 16V14C17.25 12.48 18.48 11.25 20 11.25C21.52 11.25 22.75 12.48 22.75 14V16C22.75 17.52 21.52 18.75 20 18.75ZM20 12.75C19.31 12.75 18.75 13.31 18.75 14V16C18.75 16.69 19.31 17.25 20 17.25C20.69 17.25 21.25 16.69 21.25 16V14C21.25 13.31 20.69 12.75 20 12.75Z" />
<path d="M15 14.75H3C2.59 14.75 2.25 14.41 2.25 14C2.25 13.59 2.59 13.25 3 13.25H15C15.41 13.25 15.75 13.59 15.75 14C15.75 14.41 15.41 14.75 15 14.75Z" />
<path d="M9 22.75C8.59 22.75 8.25 22.41 8.25 22V18.25C8.25 17.84 8.59 17.5 9 17.5C9.41 17.5 9.75 17.84 9.75 18.25V22C9.75 22.41 9.41 22.75 9 22.75Z" />
<path d="M9 11.25C7.76 11.25 6.75 10.24 6.75 9C6.75 7.76 7.76 6.75 9 6.75C10.24 6.75 11.25 7.76 11.25 9C11.25 10.24 10.24 11.25 9 11.25ZM9 8.25C8.59 8.25 8.25 8.59 8.25 9C8.25 9.41 8.59 9.75 9 9.75C9.41 9.75 9.75 9.41 9.75 9C9.75 8.59 9.41 8.25 9 8.25Z" />
</svg>

<?xml version="1.0" encoding="UTF-8"?>
<svg width="24" height="24" viewBox="0 0 24 24" xmlns="http://www.w3.org/2000/svg">
 <path d="m22 22.75h-20c-0.41 0-0.75-0.34-0.75-0.75s0.34-0.75 0.75-0.75h20c0.41 0 0.75 0.34 0.75 0.75s-0.34 0.75-0.75 0.75z"/>
 <path d="m3.01 22.76c-0.2 0-0.39003-0.08-0.53003-0.22s-0.21997-0.33-0.21997-0.53l-0.01001-14.94c0-0.91 0.45997-1.77 1.22-2.28l4-2.67c0.93-0.62 2.13-0.62 3.05 0l4 2.67c0.77 0.51 1.22 1.36 1.22 2.28l0.01 14.92c0 0.41-0.33 0.75-0.75 0.75l-11.99 0.02zm5.99-19.61c-0.24 0-0.48 0.06996-0.69 0.20996l-4 2.67c-0.35 0.23-0.56 0.61998-0.56 1.04l0.01001 14.19 10.5-0.02-0.01-14.17c0-0.42-0.21-0.81003-0.55-1.03l-4-2.67c-0.21-0.15-0.46001-0.21997-0.70001-0.21997z"/>
 <path d="m19.98 22.76c-0.41 0-0.75-0.34-0.75-0.75v-4.01c0-0.41 0.34-0.75 0.75-0.75s0.75 0.34 0.75 0.75v4.01c0 0.41-0.33 0.75-0.75 0.75z"/>
 <path d="m20 18.75c-1.52 0-2.75-1.23-2.75-2.75v-2c0-1.52 1.23-2.75 2.75-2.75s2.75 1.23 2.75 2.75v2c0 1.52-1.23 2.75-2.75 2.75zm0-6c-0.69 0-1.25 0.56-1.25 1.25v2c0 0.69 0.56 1.25 1.25 1.25s1.25-0.56 1.25-1.25v-2c0-0.69-0.56-1.25-1.25-1.25z"/>
 <path d="m15 14.75h-12c-0.41 0-0.75-0.34-0.75-0.75s0.34-0.75 0.75-0.75h12c0.41 0 0.75 0.34 0.75 0.75s-0.34 0.75-0.75 0.75z"/>
 <path d="m9 22.75c-0.41 0-0.75-0.34-0.75-0.75v-3.75c0-0.41 0.34-0.75 0.75-0.75s0.75 0.34 0.75 0.75v3.75c0 0.41-0.34 0.75-0.75 0.75z"/>
 <path d="m9 11.25c-1.24 0-2.25-1.01-2.25-2.25s1.01-2.25 2.25-2.25 2.25 1.01 2.25 2.25-1.01 2.25-2.25 2.25zm0-3c-0.41 0-0.75 0.34-0.75 0.75s0.34 0.75 0.75 0.75 0.75-0.34 0.75-0.75-0.34-0.75-0.75-0.75z"/>
</svg>
